build/img/advantage_1.svg

<svg viewBox="0 0 108 75" fill="none" xmlns="http://www.w3.org/2000/svg">
<path d="M22.3262 32.4819C20.2461 34.6082 17.9696 35.6714 15.4966 35.6714C11.66 35.6714 8.63232 34.1344 6.41357 31.0605C4.21794 27.9635 3.12012 23.8381 3.12012 18.6841C3.12012 15.356 3.74414 12.3167 4.99219 9.56641C6.24023 6.79297 7.97363 4.64355 10.1924 3.11816C12.4342 1.59277 14.9303 0.830078 17.6807 0.830078C20.5234 0.830078 23.0542 1.67367 25.2729 3.36084C27.4917 5.04801 29.2135 7.47477 30.4385 10.6411C31.6634 13.7843 32.2759 17.3667 32.2759 21.3882V24.959C32.2759 33.5566 30.3807 40.2822 26.5903 45.1357C22.8231 49.9661 17.4727 52.4276 10.5391 52.52H9.53369V44.061H10.1924C14.029 44.0379 16.9064 43.0441 18.8247 41.0796C20.7661 39.1151 21.9333 36.2492 22.3262 32.4819ZM17.9927 27.9751C19.8879 27.9751 21.3786 26.6808 22.4648 24.0923V19.5854C22.4648 16.2804 22.0142 13.6919 21.1128 11.8198C20.2114 9.92464 19.0443 8.97705 17.6113 8.97705C16.2015 8.97705 15.0575 9.91309 14.1792 11.7852C13.3241 13.6341 12.8965 15.8991 12.8965 18.5801C12.8965 21.4922 13.3472 23.7918 14.2485 25.479C15.1499 27.1431 16.3979 27.9751 17.9927 27.9751ZM68.5386 31.1299C68.5386 38.1097 67.2674 43.4486 64.7251 47.1465C62.2059 50.8444 58.6004 52.6934 53.9087 52.6934C49.2632 52.6934 45.6693 50.9022 43.127 47.3198C40.6077 43.7144 39.3019 38.5604 39.2095 31.8579V22.3242C39.2095 15.3675 40.4691 10.0518 42.9883 6.37695C45.5075 2.67904 49.1245 0.830078 53.8394 0.830078C58.5542 0.830078 62.1712 2.65592 64.6904 6.30762C67.2096 9.95931 68.4924 15.1711 68.5386 21.9429V31.1299ZM58.6929 20.9028C58.6929 16.9276 58.3 13.9461 57.5142 11.9585C56.7284 9.97087 55.5034 8.97705 53.8394 8.97705C50.7192 8.97705 49.1014 12.6172 48.9858 19.8975V32.4819C48.9858 36.5496 49.3787 39.5773 50.1646 41.5649C50.9735 43.5526 52.2215 44.5464 53.9087 44.5464C55.5034 44.5464 56.6821 43.6219 57.4448 41.7729C58.2306 39.9009 58.6466 37.0465 58.6929 33.21V20.9028ZM104.455 31.1299C104.455 38.1097 103.183 43.4486 100.641 47.1465C98.1219 50.8444 94.5164 52.6934 89.8247 52.6934C85.1792 52.6934 81.5853 50.9022 79.043 47.3198C76.5238 43.7144 75.2179 38.5604 75.1255 31.8579V22.3242C75.1255 15.3675 76.3851 10.0518 78.9043 6.37695C81.4235 2.67904 85.0405 0.830078 89.7554 0.830078C94.4702 0.830078 98.0872 2.65592 100.606 6.30762C103.126 9.95931 104.408 15.1711 104.455 21.9429V31.1299ZM94.6089 20.9028C94.6089 16.9276 94.216 13.9461 93.4302 11.9585C92.6444 9.97087 91.4194 8.97705 89.7554 8.97705C86.6353 8.97705 85.0174 12.6172 84.9019 19.8975V32.4819C84.9019 36.5496 85.2948 39.5773 86.0806 41.5649C86.8895 43.5526 88.1375 44.5464 89.8247 44.5464C91.4194 44.5464 92.5981 43.6219 93.3608 41.7729C94.1466 39.9009 94.5627 37.0465 94.6089 33.21V20.9028Z" fill="url(#paint0_linear)"/>
<path d="M2.91211 70.8486H2.22852V74H1.01855V66.6035H2.22852V69.7344H2.83008L4.84668 66.6035H6.28906L3.82129 70.124L6.4668 74H4.94922L2.91211 70.8486ZM7.73828 74V66.6035H10.2197C11.0674 66.6035 11.7145 66.7767 12.1611 67.123C12.6077 67.4694 12.8311 67.973 12.8311 68.6338C12.8311 68.9756 12.7422 69.2832 12.5645 69.5566C12.3867 69.8301 12.127 70.0397 11.7852 70.1855C12.1634 70.2858 12.4665 70.4886 12.6943 70.7939C12.9268 71.0993 13.043 71.4684 13.043 71.9014C13.043 72.585 12.8288 73.1068 12.4004 73.4668C11.9766 73.8223 11.375 74 10.5957 74H7.73828ZM8.94141 70.7529V72.9814H10.6094C11.4251 72.9814 11.833 72.6077 11.833 71.8604C11.833 71.1221 11.4206 70.7529 10.5957 70.7529H8.94141ZM8.94141 69.7412H10.2061C11.1494 69.7412 11.6211 69.3949 11.6211 68.7021C11.6211 68.0049 11.1768 67.6471 10.2881 67.6289H8.94141V69.7412ZM15.0186 74.8545H13.9932L17.4863 64.0469H18.5049L15.0186 74.8545ZM23.5088 72.3252L25.4912 66.6035H26.9951V74H25.792V68.9004L23.9258 74H23.0986L21.1914 68.7773V74H19.9883V66.6035H21.5469L23.5088 72.3252Z" fill="#2E35AC"/>
<defs>
<linearGradient id="paint0_linear" x1="0" y1="3" x2="22.4438" y2="41.104" gradientUnits="userSpaceOnUse">
<stop stop-color="#D10A42"/>
<stop offset="1" stop-color="#0041CA"/>
</linearGradient>
</defs>
</svg>

<svg viewBox="0 0 108 75" fill="none" xmlns="http://www.w3.org/2000/svg"><path d="M22.326 32.482c-2.08 2.126-4.356 3.19-6.83 3.19-3.836 0-6.864-1.538-9.082-4.611-2.196-3.098-3.294-7.223-3.294-12.377 0-3.328.624-6.367 1.872-9.118 1.248-2.773 2.982-4.922 5.2-6.448C12.434 1.593 14.93.83 17.681.83c2.842 0 5.373.844 7.592 2.53 2.219 1.688 3.94 4.115 5.166 7.281 1.224 3.143 1.837 6.726 1.837 10.747v3.571c0 8.598-1.895 15.323-5.686 20.177-3.767 4.83-9.117 7.292-16.05 7.384H9.533v-8.459h.658c3.837-.023 6.714-1.017 8.633-2.981 1.941-1.965 3.108-4.83 3.501-8.598zm-4.333-4.507c1.895 0 3.386-1.294 4.472-3.883v-4.507c0-3.305-.45-5.893-1.352-7.765-.902-1.895-2.069-2.843-3.502-2.843-1.41 0-2.554.936-3.432 2.808-.855 1.85-1.283 4.114-1.283 6.795 0 2.912.451 5.212 1.352 6.899.902 1.664 2.15 2.496 3.745 2.496zm50.546 3.155c0 6.98-1.272 12.319-3.814 16.017-2.52 3.697-6.125 5.546-10.816 5.546-4.646 0-8.24-1.79-10.782-5.373-2.52-3.606-3.825-8.76-3.918-15.462v-9.534c0-6.957 1.26-12.272 3.78-15.947C45.507 2.679 49.124.83 53.838.83c4.715 0 8.332 1.826 10.851 5.478 2.52 3.651 3.802 8.863 3.849 15.635v9.187zm-9.846-10.227c0-3.975-.393-6.957-1.179-8.944-.786-1.988-2.01-2.982-3.675-2.982-3.12 0-4.738 3.64-4.853 10.92v12.585c0 4.068.393 7.095 1.179 9.083.809 1.988 2.056 2.981 3.744 2.981 1.594 0 2.773-.924 3.536-2.773.786-1.872 1.202-4.727 1.248-8.563V20.903zm45.762 10.227c0 6.98-1.272 12.319-3.814 16.017-2.52 3.697-6.125 5.546-10.816 5.546-4.646 0-8.24-1.79-10.782-5.373-2.52-3.606-3.825-8.76-3.918-15.462v-9.534c0-6.957 1.26-12.272 3.78-15.947C81.423 2.679 85.04.83 89.754.83s8.332 1.826 10.851 5.478c2.52 3.651 3.802 8.863 3.849 15.635v9.187zm-9.846-10.227c0-3.975-.393-6.957-1.179-8.944-.786-1.988-2.01-2.982-3.675-2.982-3.12 0-4.738 3.64-4.853 10.92v12.585c0 4.068.393 7.095 1.179 9.083.808 1.988 2.056 2.981 3.744 2.981 1.594 0 2.773-.924 3.536-2.773.786-1.872 1.202-4.727 1.248-8.563V20.903z" fill="url(#paint0_linear)"/><path d="M2.912 70.849H2.23V74H1.02v-7.397h1.21v3.131h.601l2.017-3.13H6.29l-2.468 3.52L6.467 74H4.949l-2.037-3.151zM7.738 74v-7.397h2.482c.847 0 1.494.174 1.941.52.447.346.67.85.67 1.51 0 .343-.089.65-.266.924a1.688 1.688 0 01-.78.629c.378.1.681.303.91.608.232.305.348.674.348 1.107 0 .684-.214 1.206-.643 1.566-.423.355-1.025.533-1.804.533H7.738zm1.203-3.247v2.228h1.668c.816 0 1.224-.373 1.224-1.12 0-.739-.412-1.108-1.237-1.108H8.94zm0-1.012h1.265c.943 0 1.415-.346 1.415-1.039 0-.697-.444-1.055-1.333-1.073H8.941v2.112zm6.078 5.114h-1.026l3.493-10.808h1.019l-3.486 10.808zm8.49-2.53l1.982-5.722h1.504V74h-1.203v-5.1L23.926 74h-.827l-1.908-5.223V74h-1.203v-7.397h1.559l1.962 5.722z" fill="#2E35AC"/><defs><linearGradient id="paint0_linear" x1="0" y1="3" x2="22.444" y2="41.104" gradientUnits="userSpaceOnUse"><stop stop-color="#D10A42"/><stop offset="1" stop-color="#0041CA"/></linearGradient></defs></svg>
